X: 11782
Q: "Moderate."
M: C
L: 1/8
K: G
[|\
d4 d2d2 | (ed^cd) A2z2 | e4 (A3G) | (F3G) A2z2 |
d4 f2d2 | (B3^c) d2z2 | d4 ({f}e2d^c) | d4 z4 |\
e4 g2e2 | d4 G2z2 | e4 g2e2 | (d3c) B2z2 |\


